korla/status/symbolic/thunderbolt-acquiring-symbolic.svg

<svg xmlns="http://www.w3.org/2000/svg" width="16" height="16" version="1.1">
 <path style="fill:#dfdfdf;opacity:0.3" d="M 7.0410156 0.07421875 C 4.8116686 0.33951656 2.8621436 1.5220269 1.5839844 3.234375 C 1.5825944 3.236235 1.5814681 3.2383644 1.5800781 3.2402344 C 1.4490271 3.4161262 1.327456 3.5985392 1.2109375 3.7851562 C 1.1918512 3.8156275 1.1729706 3.8462272 1.1542969 3.8769531 C 1.0515454 4.0465745 0.95543124 4.2208727 0.86523438 4.3984375 C 0.83927863 4.4502434 0.81388651 4.5023298 0.7890625 4.5546875 C 0.71901784 4.7003609 0.65506547 4.8495601 0.59375 5 L 4.7949219 5 L 7.0410156 0.07421875 z M 10.714844 0.484375 L 8.3554688 5 L 15.404297 5 C 15.395253 4.977501 15.390117 4.9540789 15.380859 4.9316406 C 15.361079 4.8871866 15.340902 4.8429136 15.320312 4.7988281 C 15.207799 4.5396662 15.07901 4.285683 14.9375 4.0371094 C 14.900693 3.9701657 14.862929 3.9037526 14.824219 3.8378906 C 14.458401 3.2370608 14.007874 2.6728574 13.462891 2.1679688 C 13.458291 2.1634087 13.453789 2.1588489 13.449219 2.1542969 C 13.445519 2.1509269 13.44122 2.1479012 13.4375 2.1445312 C 12.86649 1.6201511 12.196716 1.1584716 11.423828 0.78320312 L 11.423828 0.77929688 C 11.192357 0.66969753 10.955756 0.57127713 10.714844 0.484375 z M 0.58789062 11 C 0.66226488 11.181841 0.74251753 11.361227 0.83007812 11.537109 C 0.86040302 11.598909 0.89197052 11.65982 0.92382812 11.720703 C 1.0296704 11.926094 1.1443613 12.126803 1.2675781 12.322266 C 1.7001797 12.996082 2.2314918 13.601132 2.84375 14.117188 L 2.8476562 14.121094 C 3.2350087 14.445615 3.6522377 14.732705 4.09375 14.978516 L 4.4355469 11 L 0.58789062 11 z M 4.6640625 11 L 5.6132812 12.130859 L 6.1777344 11 L 4.6640625 11 z M 8.4316406 11 L 7.09375 12.845703 L 9.0039062 13.044922 L 5.890625 15.707031 C 6.5775517 15.898256 7.2869608 15.996785 8 16 C 11.331519 16.000465 14.223685 13.953405 15.417969 11 L 8.4316406 11 z"/>
 <g>
  <path style="fill:#dfdfdf" d="M 5,8 A 2,2 0 0 1 3,10 2,2 0 0 1 1,8 2,2 0 0 1 3,6 2,2 0 0 1 5,8 Z"/>
  <path style="fill:#dfdfdf" d="M 10,8 A 2,2 0 0 1 8,10 2,2 0 0 1 6,8 2,2 0 0 1 8,6 2,2 0 0 1 10,8 Z"/>
  <path style="fill:#dfdfdf" d="m 15,8 a 2,2 0 0 1 -2,2 2,2 0 0 1 -2,-2 2,2 0 0 1 2,-2 2,2 0 0 1 2,2 z"/>
 </g>
</svg>

<svg style="clip-rule:evenodd;fill-rule:evenodd;stroke-linejoin:round;stroke-miterlimit:2" version="1.1" viewBox="0 0 16 16" xmlns="http://www.w3.org/2000/svg">
 <path d="m5 8c0 1.097-0.903 2-2 2s-2-0.903-2-2 0.903-2 2-2 2 0.903 2 2z" style="fill-rule:nonzero;fill:rgb(223,223,223)"/>
 <path d="m10 8c0 1.097-0.903 2-2 2s-2-0.903-2-2 0.903-2 2-2 2 0.903 2 2z" style="fill-rule:nonzero;fill:rgb(223,223,223)"/>
 <path d="m15 8c0 1.097-0.903 2-2 2s-2-0.903-2-2 0.903-2 2-2 2 0.903 2 2z" style="fill-rule:nonzero;fill:rgb(223,223,223)"/>
 <g transform="translate(.595533)">
  <path d="m6.47 0-3.588 8.571h4.79l-4.064 7.429 8.966-10h-5.412l4.669-6h-5.361z" style="fill-opacity:.5;fill:rgb(223,223,223)"/>
 </g>
</svg>
